build/system/EditOutline.svg

<svg xmlns="http://www.w3.org/2000/svg" fill="none" viewBox="0 0 24 24" focusable="false"><path d="M0 0H24V24H0z"/><path fill="#74767B" fill-rule="evenodd" d="M16.0454 3.88369C16.5531 3.37601 17.3762 3.37601 17.8839 3.88369L19.5809 5.58075C20.0886 6.08843 20.0886 6.91154 19.5809 7.41922L9.10856 17.8916C8.71098 18.2892 8.20968 18.567 7.66182 18.6934L5.93071 19.0929C4.99462 19.309 4.15566 18.47 4.37168 17.5339L4.77117 15.8028C4.8976 15.2549 5.17545 14.7536 5.57302 14.3561L16.0454 3.88369ZM16.9646 4.80293L18.6617 6.49999L17.0405 8.12112L15.3435 6.42407L16.9646 4.80293ZM14.4242 7.34331L6.49226 15.2753C6.26697 15.5006 6.10952 15.7847 6.03788 16.0951L5.63839 17.8262L7.3695 17.4267C7.67995 17.3551 7.96402 17.1976 8.18932 16.9724L16.1213 9.04036L14.4242 7.34331Z"/></svg>

<svg xmlns="http://www.w3.org/2000/svg" fill="none" viewBox="0 0 24 24" focusable="false"><path fill="#74767B" fill-rule="evenodd" d="M16.04 3.88c.51-.51 1.33-.51 1.84 0l1.7 1.7c.5.5.5 1.33 0 1.83L9.1 17.89c-.39.39-.9.67-1.44.8l-1.73.4c-.94.21-1.78-.63-1.56-1.56l.4-1.73c.12-.55.4-1.05.8-1.45zm.92.92 1.7 1.7-1.62 1.62-1.7-1.7zm-2.54 2.54-7.93 7.93c-.23.23-.39.51-.46.82l-.4 1.73 1.73-.4c.32-.07.6-.23.82-.45l7.94-7.93z"/></svg>
